build/img/sprite.svg

<svg xmlns="http://www.w3.org/2000/svg" xmlns:xlink="http://www.w3.org/1999/xlink"><symbol id="icon-eye" viewBox="0 0 22 12">
  <path d="M8.29878 12L6.33638 11.4893L7.13618 8.59185C5.93899 8.16352 4.82634 7.5393 3.84654 6.7463L1.65854 8.86987L0.220528 7.47486L2.40955 5.35228C1.17386 3.91662 0.343585 2.19431 0 0.353927L2 0C2.77134 4.14262 6.50711 7.28557 11 7.28557C15.4919 7.28557 19.2287 4.14262 20 0L22 0.352941C21.6569 2.19358 20.827 3.91624 19.5915 5.35228L21.7795 7.47486L20.3415 8.86987L18.1535 6.7463C17.1737 7.5393 16.061 8.16352 14.8638 8.59185L15.6636 11.4903L13.7012 12L12.9004 9.10155C11.6426 9.31063 10.3574 9.31063 9.0996 9.10155L8.29878 12Z" fill="#1F1E25"/>
</symbol><symbol id="icon-fb" viewBox="0 0 9 16">
  <path d="M6 9.2H8.14286L9 6H6V4.4C6 3.576 6 2.8 7.71429 2.8H9V0.112C8.72057 0.0776001 7.66543 0 6.55114 0C4.224 0 2.57143 1.3256 2.57143 3.76V6H0V9.2H2.57143V16H6V9.2Z" fill="currentColor"/>
</symbol><symbol id="icon-inst" viewBox="0 0 16 16">
  <path d="M8 0C10.1736 0 10.4448 0.00799995 11.2976 0.048C12.1496 0.088 12.7296 0.2216 13.24 0.42C13.768 0.6232 14.2128 0.8984 14.6576 1.3424C15.0644 1.74232 15.3792 2.22607 15.58 2.76C15.7776 3.2696 15.912 3.8504 15.952 4.7024C15.9896 5.5552 16 5.8264 16 8C16 10.1736 15.992 10.4448 15.952 11.2976C15.912 12.1496 15.7776 12.7296 15.58 13.24C15.3797 13.7742 15.0649 14.2581 14.6576 14.6576C14.2576 15.0643 13.7738 15.379 13.24 15.58C12.7304 15.7776 12.1496 15.912 11.2976 15.952C10.4448 15.9896 10.1736 16 8 16C5.8264 16 5.5552 15.992 4.7024 15.952C3.8504 15.912 3.2704 15.7776 2.76 15.58C2.22586 15.3796 1.74202 15.0648 1.3424 14.6576C0.935525 14.2577 0.620745 13.774 0.42 13.24C0.2216 12.7304 0.088 12.1496 0.048 11.2976C0.0104 10.4448 0 10.1736 0 8C0 5.8264 0.00799995 5.5552 0.048 4.7024C0.088 3.8496 0.2216 3.2704 0.42 2.76C0.620189 2.22574 0.935043 1.74186 1.3424 1.3424C1.74214 0.935385 2.22594 0.620583 2.76 0.42C3.2704 0.2216 3.8496 0.088 4.7024 0.048C5.5552 0.0104 5.8264 0 8 0ZM8 4C6.93913 4 5.92172 4.42143 5.17157 5.17157C4.42143 5.92172 4 6.93913 4 8C4 9.06087 4.42143 10.0783 5.17157 10.8284C5.92172 11.5786 6.93913 12 8 12C9.06087 12 10.0783 11.5786 10.8284 10.8284C11.5786 10.0783 12 9.06087 12 8C12 6.93913 11.5786 5.92172 10.8284 5.17157C10.0783 4.42143 9.06087 4 8 4ZM13.2 3.8C13.2 3.53478 13.0946 3.28043 12.9071 3.09289C12.7196 2.90536 12.4652 2.8 12.2 2.8C11.9348 2.8 11.6804 2.90536 11.4929 3.09289C11.3054 3.28043 11.2 3.53478 11.2 3.8C11.2 4.06522 11.3054 4.31957 11.4929 4.50711C11.6804 4.69464 11.9348 4.8 12.2 4.8C12.4652 4.8 12.7196 4.69464 12.9071 4.50711C13.0946 4.31957 13.2 4.06522 13.2 3.8ZM8 5.6C8.63652 5.6 9.24697 5.85286 9.69706 6.30294C10.1471 6.75303 10.4 7.36348 10.4 8C10.4 8.63652 10.1471 9.24697 9.69706 9.69706C9.24697 10.1471 8.63652 10.4 8 10.4C7.36348 10.4 6.75303 10.1471 6.30294 9.69706C5.85286 9.24697 5.6 8.63652 5.6 8C5.6 7.36348 5.85286 6.75303 6.30294 6.30294C6.75303 5.85286 7.36348 5.6 8 5.6Z" fill="currentColor"/>
</symbol><symbol id="icon-login" viewBox="0 0 20 22">
  <path d="M2.22222 14.3H4.44444V19.8H17.7778V2.2H4.44444V7.7H2.22222V1.1C2.22222 0.808262 2.33929 0.528472 2.54766 0.322183C2.75603 0.115892 3.03865 0 3.33333 0H18.8889C19.1836 0 19.4662 0.115892 19.6746 0.322183C19.8829 0.528472 20 0.808262 20 1.1V20.9C20 21.1917 19.8829 21.4715 19.6746 21.6778C19.4662 21.8841 19.1836 22 18.8889 22H3.33333C3.03865 22 2.75603 21.8841 2.54766 21.6778C2.33929 21.4715 2.22222 21.1917 2.22222 20.9V14.3ZM8.88889 9.9V6.6L14.4444 11L8.88889 15.4V12.1H0V9.9H8.88889Z" fill="currentColor"/>
</symbol><symbol id="icon-phone" viewBox="0 0 10 16">
  <path d="M8.8373 0H1.1627C0.523313 0 0 0.485943 0 1.08069V14.9189C0 15.5136 0.523313 16 1.1627 16H8.8373C9.47669 16 10 15.5145 10 14.9193V1.08069C10 0.485943 9.47669 0 8.8373 0ZM3.77238 0.778971H6.22762C6.30533 0.778971 6.36829 0.837486 6.36829 0.910171C6.36829 0.9824 6.30533 1.04091 6.22762 1.04091H3.77238C3.69467 1.04091 3.63171 0.9824 3.63171 0.910171C3.63171 0.837486 3.69467 0.778971 3.77238 0.778971ZM5 15.4597C4.67883 15.4597 4.41865 15.2178 4.41865 14.9189C4.41865 14.6199 4.67883 14.3785 5 14.3785C5.32117 14.3785 5.58135 14.6199 5.58135 14.9189C5.58135 15.2178 5.32117 15.4597 5 15.4597ZM9.19093 14H0.809069V1.71383H9.19093V14Z" fill="currentColor"/>
</symbol><symbol id="icon-tel" viewBox="0 0 16 16">
  <path d="M15.9991 11.9282V15.0712C15.9992 15.2962 15.914 15.5129 15.7605 15.6775C15.6071 15.8422 15.397 15.9425 15.1725 15.9582C14.7841 15.9849 14.4668 15.9991 14.2214 15.9991C6.36676 15.9991 0 9.63235 0 1.77768C0 1.53236 0.0133326 1.21504 0.0408866 0.826621C0.056639 0.602139 0.156952 0.391988 0.321585 0.238572C0.486218 0.0851569 0.702915 -0.000101713 0.927949 2.28058e-07H4.07089C4.18114 -0.000111402 4.28749 0.0407613 4.36929 0.114678C4.4511 0.188596 4.5025 0.29028 4.51353 0.399978C4.53397 0.604411 4.55264 0.767069 4.57041 0.890617C4.74706 2.12337 5.10905 3.32233 5.64413 4.44687C5.72857 4.62463 5.67346 4.83706 5.51347 4.95084L3.59536 6.32143C4.76814 9.05412 6.94588 11.2319 9.67857 12.4046L11.0474 10.4901C11.1033 10.4119 11.185 10.3558 11.278 10.3316C11.3711 10.3074 11.4697 10.3166 11.5567 10.3576C12.6811 10.8917 13.8797 11.2528 15.1121 11.4287C15.2356 11.4465 15.3983 11.466 15.6009 11.4856C15.7105 11.4968 15.8119 11.5483 15.8857 11.6301C15.9594 11.7119 16.0001 11.8181 16 11.9282H15.9991Z" fill="currentColor"/>
</symbol><symbol id="icon-tw" viewBox="0 0 16 13">
  <path d="M15.9992 1.54324C15.4 1.80812 14.7645 1.98209 14.1138 2.05937C14.7996 1.64947 15.313 1.00438 15.5581 0.244297C14.9144 0.627078 14.2088 0.895338 13.4733 1.04045C12.9793 0.512227 12.3245 0.161908 11.6106 0.0439529C10.8968 -0.0740019 10.164 0.047017 9.52611 0.388195C8.88822 0.729374 8.38099 1.2716 8.08329 1.93057C7.78559 2.58954 7.71409 3.32833 7.87991 4.0321C6.57465 3.96673 5.29775 3.62777 4.13209 3.03724C2.96644 2.4467 1.93809 1.6178 1.11381 0.604331C0.822049 1.10512 0.668725 1.67441 0.669545 2.2539C0.669545 3.39126 1.24882 4.39606 2.12951 4.98435C1.60833 4.96795 1.09861 4.8273 0.642857 4.57411V4.6149C0.643014 5.37238 0.905313 6.1065 1.38528 6.69279C1.86525 7.27907 2.53335 7.68144 3.27629 7.83167C2.79248 7.96269 2.28517 7.98201 1.79278 7.88815C2.00225 8.54016 2.41052 9.11038 2.96043 9.51897C3.51034 9.92757 4.17436 10.1541 4.8595 10.1668C4.17856 10.7012 3.39888 11.0963 2.56506 11.3294C1.73123 11.5625 0.859598 11.6291 0 11.5253C1.50055 12.4897 3.24733 13.0017 5.0314 13C11.0699 13 14.3721 8.0011 14.3721 3.66579C14.3721 3.5246 14.3681 3.38184 14.3619 3.24222C15.0046 2.778 15.5593 2.20293 16 1.54403L15.9992 1.54324Z" fill="currentColor"/>
</symbol><symbol id="icon-youtube" viewBox="0 0 16 13">
  <path d="M15.6344 2.02963C16 3.4775 16 6.5 16 6.5C16 6.5 16 9.5225 15.6344 10.9704C15.4312 11.7707 14.8368 12.4004 14.084 12.6132C12.7168 13 8 13 8 13C8 13 3.2856 13 1.916 12.6132C1.16 12.3971 0.5664 11.7683 0.3656 10.9704C2.38419e-08 9.5225 0 6.5 0 6.5C0 6.5 2.38419e-08 3.4775 0.3656 2.02963C0.5688 1.22931 1.1632 0.599625 1.916 0.38675C3.2856 -1.45286e-07 8 0 8 0C8 0 12.7168 -1.45286e-07 14.084 0.38675C14.84 0.602875 15.4336 1.23175 15.6344 2.02963ZM6.4 9.34375L11.2 6.5L6.4 3.65625V9.34375Z" fill="currentColor"/>
</symbol></svg>

<svg xmlns="http://www.w3.org/2000/svg" xmlns:xlink="http://www.w3.org/1999/xlink"><symbol id="icon-eye"><path d="M8.299 12l-1.963-.51.8-2.898a11.254 11.254 0 01-3.29-1.846L1.66 8.87.22 7.475l2.19-2.123A10.663 10.663 0 010 .354L2 0c.771 4.143 4.507 7.286 9 7.286 4.492 0 8.229-3.143 9-7.286l2 .353a10.662 10.662 0 01-2.409 5l2.188 2.122-1.438 1.395-2.188-2.124a11.254 11.254 0 01-3.29 1.846l.8 2.898-1.962.51-.8-2.898a11.6 11.6 0 01-3.801 0L8.299 12z" fill="#1F1E25"/></symbol><symbol id="icon-fb"><path d="M6 9.2h2.143L9 6H6V4.4c0-.824 0-1.6 1.714-1.6H9V.112A25.85 25.85 0 006.551 0c-2.327 0-3.98 1.326-3.98 3.76V6H0v3.2h2.571V16H6V9.2z" fill="currentColor"/></symbol><symbol id="icon-inst"><path d="M8 0c2.174 0 2.445.008 3.298.048.852.04 1.432.174 1.942.372a3.9 3.9 0 011.418.922c.406.4.721.884.922 1.418.198.51.332 1.09.372 1.942C15.99 5.555 16 5.826 16 8s-.008 2.445-.048 3.298c-.04.852-.174 1.432-.372 1.942a3.907 3.907 0 01-.922 1.418 3.94 3.94 0 01-1.418.922c-.51.198-1.09.332-1.942.372C10.445 15.99 10.174 16 8 16s-2.445-.008-3.298-.048c-.852-.04-1.432-.174-1.942-.372a3.911 3.911 0 01-1.418-.922A3.923 3.923 0 01.42 13.24c-.198-.51-.332-1.09-.372-1.942C.01 10.445 0 10.174 0 8s.008-2.445.048-3.298C.088 3.85.222 3.27.42 2.76c.2-.534.515-1.018.922-1.418.4-.407.884-.721 1.418-.922C3.27.222 3.85.088 4.702.048 5.555.01 5.826 0 8 0zm0 4a4 4 0 100 8 4 4 0 000-8zm5.2-.2a1 1 0 10-2 0 1 1 0 002 0zM8 5.6a2.4 2.4 0 110 4.8 2.4 2.4 0 010-4.8z" fill="currentColor"/></symbol><symbol id="icon-login"><path d="M2.222 14.3h2.222v5.5h13.334V2.2H4.444v5.5H2.222V1.1c0-.292.117-.572.326-.778.208-.206.49-.322.785-.322H18.89c.295 0 .577.116.786.322.208.206.325.486.325.778v19.8c0 .292-.117.572-.325.778a1.117 1.117 0 01-.786.322H3.333c-.294 0-.577-.116-.785-.322a1.095 1.095 0 01-.326-.778v-6.6zM8.89 9.9V6.6l5.555 4.4-5.555 4.4v-3.3H0V9.9h8.889z" fill="currentColor"/></symbol><symbol id="icon-phone"><path d="M8.837 0H1.163C.523 0 0 .486 0 1.08v13.84C0 15.514.523 16 1.163 16h7.674c.64 0 1.163-.486 1.163-1.08V1.08C10 .487 9.477 0 8.837 0zM3.772.779h2.456c.077 0 .14.058.14.131 0 .072-.063.13-.14.13H3.772c-.077 0-.14-.058-.14-.13 0-.073.063-.131.14-.131zM5 15.459c-.321 0-.581-.241-.581-.54 0-.3.26-.54.581-.54.321 0 .581.24.581.54 0 .299-.26.54-.581.54zM9.19 14H.81V1.714h8.38V14z" fill="currentColor"/></symbol><symbol id="icon-tel"><path d="M16 11.928v3.143a.888.888 0 01-.828.887 14.3 14.3 0 01-.95.041C6.366 16 0 9.632 0 1.778c0-.246.013-.563.04-.951A.889.889 0 01.929 0H4.07a.444.444 0 01.443.4c.02.204.039.367.056.49a12.356 12.356 0 001.074 3.557c.085.178.03.39-.13.504L3.594 6.32a11.596 11.596 0 006.084 6.084l1.368-1.915a.41.41 0 01.51-.132 12.325 12.325 0 004.044 1.128.444.444 0 01.399.442z" fill="currentColor"/></symbol><symbol id="icon-tw"><path d="M16 1.543c-.6.265-1.236.44-1.886.516A3.292 3.292 0 0015.558.244a6.564 6.564 0 01-2.085.796A3.283 3.283 0 007.88 4.032 9.325 9.325 0 011.114.604a3.28 3.28 0 001.016 4.38 3.273 3.273 0 01-1.487-.41v.04a3.281 3.281 0 002.633 3.218c-.484.13-.99.15-1.483.056a3.283 3.283 0 003.066 2.279A6.59 6.59 0 010 11.525 9.29 9.29 0 005.031 13c6.039 0 9.341-4.999 9.341-9.334 0-.141-.004-.284-.01-.424A6.667 6.667 0 0016 1.544z" fill="currentColor"/></symbol><symbol id="icon-youtube"><path d="M15.634 2.03C16 3.478 16 6.5 16 6.5s0 3.023-.366 4.47c-.203.8-.797 1.43-1.55 1.643C12.717 13 8 13 8 13s-4.714 0-6.084-.387c-.756-.216-1.35-.845-1.55-1.643C0 9.523 0 6.5 0 6.5s0-3.022.366-4.47c.203-.8.797-1.43 1.55-1.643C3.286 0 8 0 8 0s4.717 0 6.084.387c.756.216 1.35.845 1.55 1.643zM6.4 9.344L11.2 6.5 6.4 3.656v5.688z" fill="currentColor"/></symbol></svg>
